public/avatar/item0/19.svg

<svg xmlns:xlink="http://www.w3.org/1999/xlink" height="58.65" width="49.15" xmlns="http://www.w3.org/2000/svg"><use height="11" transform="translate(10.2 24.95)" width="22.35" xlink:href="#a"/><defs><g id="a" fill-rule="evenodd"><path d="M-4.8 6.85q2.15 0 3.55 1.7 1.2 1.6 1.3 3.8.05 2.25-1.1 3.8-1.35 1.7-3.75 1.7t-3.75-1.7q-1.2-1.55-1.1-3.8.05-2.2 1.3-3.8Q-7 6.85-4.8 6.85" transform="translate(13.9 -6.85)"/><path d="m1.25 9.25-3.65 1.9.4-2.25v.25L3.85 7.3l4.6-.4q-4.1 1.15-7.2 2.35M-8.4 11.5l1.1 1.5-2.45.65-4.15 1.65 1.9-1.9 3.6-1.9" transform="translate(13.9 -6.85)"/><path d="m-8.7 11.9.5-2.25q.25-.75 1.4-1.4 1.35-.8 2.85-.5Q-2.5 8-1.6 9.5q.7 1.1.7 1.9 0 .75-2.75 1.35-2.6 1.3-4 1.3-.85 0-1.05-1.05v-1.1" fill="#343434" transform="translate(13.9 -6.85)"/><path d="m-8.25 15.15 1.2.6q1.45.6 2.65.6 1.95 0 3.6-1.95-.85 2.7-3.6 2.7-1.7 0-2.95-.95l-.9-1" fill="#5d5d5d" transform="translate(13.9 -6.85)"/></g></defs></svg>

<?xml version="1.0" encoding="UTF-8" standalone="no"?>
<svg xmlns:xlink="http://www.w3.org/1999/xlink" height="58.65px" width="49.15px" xmlns="http://www.w3.org/2000/svg">
  <g transform="matrix(1.0, 0.0, 0.0, 1.0, 24.1, 18.1)">
    <use height="11.0" transform="matrix(1.0, 0.0, 0.0, 1.0, -13.9, 6.85)" width="22.35" xlink:href="#shape0"/>
  </g>
  <defs>
    <g id="shape0" transform="matrix(1.0, 0.0, 0.0, 1.0, 13.9, -6.85)">
      <path d="M-4.8 6.85 Q-2.65 6.85 -1.25 8.55 -0.05 10.15 0.05 12.35 0.1 14.6 -1.05 16.15 -2.4 17.85 -4.8 17.85 -7.2 17.85 -8.55 16.15 -9.75 14.6 -9.65 12.35 -9.6 10.15 -8.35 8.55 -7.0 6.85 -4.8 6.85" fill="#000000" fill-rule="evenodd" stroke="none"/>
      <path d="M1.25 9.25 L-2.4 11.15 -2.0 8.9 -2.0 9.15 3.85 7.3 8.45 6.9 Q4.35 8.05 1.25 9.25" fill="#000000" fill-rule="evenodd" stroke="none"/>
      <path d="M-8.4 11.5 L-7.3 13.0 -9.75 13.65 -13.9 15.3 -12.0 13.4 -8.4 11.5" fill="#000000" fill-rule="evenodd" stroke="none"/>
      <path d="M-8.7 11.9 L-8.2 9.65 Q-7.95 8.9 -6.8 8.25 -5.45 7.45 -3.95 7.75 -2.5 8.0 -1.6 9.5 -0.9 10.6 -0.9 11.4 -0.9 12.15 -3.65 12.75 -6.25 14.05 -7.65 14.05 -8.5 14.05 -8.7 13.0 L-8.7 11.9" fill="#343434" fill-rule="evenodd" stroke="none"/>
      <path d="M-8.25 15.15 L-7.05 15.75 Q-5.6 16.35 -4.4 16.35 -2.45 16.35 -0.8 14.4 -1.65 17.1 -4.4 17.1 -6.1 17.1 -7.35 16.15 L-8.25 15.15" fill="#5d5d5d" fill-rule="evenodd" stroke="none"/>
    </g>
  </defs>
</svg>
